;FLAVOR:Marlin
;TIME:1077
;Filament used: 0.843741m
;Layer height: 0.2
;MINX:87.2
;MINY:99.7
;MINZ:0.3
;MAXX:132.8
;MAXY:120.3
;MAXZ:29.9
;TARGET_MACHINE.NAME:Anycubic Kobra 2
;Generated with Cura_SteamEngine 5.9.0
M82 ;absolute extrusion mode
G21 ;metric values
G90 ; use absolute coordinates
M82 ; use absolute distances for extrusion
M104 S205 ; set extruder temp
M140 S60 ; set bed temp
M190 S60 ; wait for bed temp
M109 S205 ; wait for extruder temp
G28 ; home all axes
M300 S1318 P266
G1 Z5 F5000 ; lift nozzle
G1 X5 Y0  F3000
G1 Z0.3 ; set nozzle height
G92 E0
G1 X50 Y0 E20 F500 ; Extrude 20mm of filament in a 5cm line 
G92 E0 ; zero the extruded length again 
G1 E-4.5 F4800 ; Retract a little 
G92 E0
G1 X120 F4000 ; Quickly wipe away from the filament line
M117 ; Printing…
G5
G92 E0
G92 E0
G1 F4800 E-2
;LAYER_COUNT:149
;LAYER:0
M107
M204 S3000
M205 X10 Y10
G0 F7500 X125.754 Y120.248 Z0.3
M204 S2500
M205 X8 Y8
;TYPE:SKIRT
G1 F4800 E0
G1 F2400 X94.378 Y120.3 E1.56536
G1 X92.321 Y119.878 E1.67012
G1 X90.55 Y118.883 E1.77146
G1 X89.552 Y118.11 E1.83444
G1 X88.462 Y116.757 E1.92112
G1 X87.473 Y114.771 E2.03181
G1 X87.227 Y112.912 E2.12537
G1 X87.2 Y106.896 E2.42551
G1 X87.624 Y104.823 E2.53107
G1 X88.681 Y102.95 E2.63837
G1 X89.372 Y102.067 E2.69431
G1 X90.749 Y100.958 E2.78252
G1 X92.723 Y99.974 E2.89256
G1 X94.246 Y99.752 E2.96934
G1 X125.622 Y99.7 E4.5347
G1 X127.679 Y100.122 E4.63946
G1 X129.45 Y101.117 E4.74081
G1 X130.448 Y101.89 E4.80379
G1 X131.538 Y103.243 E4.89047
G1 X132.527 Y105.229 E5.00116
G1 X132.773 Y107.088 E5.09471
G1 X132.8 Y113.104 E5.39485
G1 X132.376 Y115.177 E5.50042
G1 X131.319 Y117.05 E5.60771
G1 X130.628 Y117.933 E5.66365
G1 X129.251 Y119.042 E5.75186
G1 X127.277 Y120.026 E5.8619
G1 X125.754 Y120.248 E5.93869
M204 S3000
M205 X10 Y10
G0 F7500 X125.696 Y119.852
M204 S2500
M205 X8 Y8
G1 F2400 X94.419 Y119.9 E7.49911
G1 X92.462 Y119.498 E7.59878
G1 X90.795 Y118.567 E7.69404
G1 X89.833 Y117.822 E7.75474
G1 X88.801 Y116.541 E7.83681
G1 X87.861 Y114.654 E7.94199
G1 X87.624 Y112.86 E8.03227
G1 X87.6 Y106.936 E8.32782
G1 X88.003 Y104.965 E8.42819
G1 X88.996 Y103.197 E8.52935
G1 X89.659 Y102.35 E8.58302
G1 X90.969 Y101.295 E8.66693
G1 X92.843 Y100.361 E8.7714
G1 X94.304 Y100.148 E8.84506
G1 X125.581 Y100.1 E10.40547
G1 X127.538 Y100.502 E10.50515
G1 X129.205 Y101.433 E10.60041
G1 X130.167 Y102.178 E10.66111
G1 X131.199 Y103.459 E10.74318
G1 X132.139 Y105.346 E10.84835
G1 X132.376 Y107.14 E10.93864
G1 X132.4 Y113.064 E11.23419
G1 X131.997 Y115.035 E11.33456
G1 X131.004 Y116.803 E11.43572
G1 X130.341 Y117.65 E11.48938
G1 X129.031 Y118.705 E11.5733
G1 X127.157 Y119.639 E11.67776
G1 X125.696 Y119.852 E11.75142
M204 S3000
M205 X10 Y10
G0 F7500 X125.638 Y119.456
M204 S2500
M205 X8 Y8
G1 F2400 X94.461 Y119.5 E13.30685
G1 X92.603 Y119.118 E13.40149
G1 X91.04 Y118.251 E13.49066
G1 X90.114 Y117.534 E13.54909
G1 X89.14 Y116.325 E13.62654
G1 X88.248 Y114.535 E13.72632
G1 X88.024 Y112.858 E13.81073
G1 X88 Y106.976 E14.10419
G1 X88.383 Y105.105 E14.19947
G1 X89.311 Y103.444 E14.29439
G1 X89.948 Y102.631 E14.34592
G1 X91.185 Y101.634 E14.42518
G1 X92.963 Y100.748 E14.52429
G1 X94.362 Y100.544 E14.59482
G1 X125.539 Y100.5 E16.15025
G1 X127.397 Y100.882 E16.24489
G1 X128.96 Y101.749 E16.33406
G1 X129.886 Y102.466 E16.39249
G1 X130.86 Y103.675 E16.46994
G1 X131.752 Y105.465 E16.56972
G1 X131.976 Y107.142 E16.65413
G1 X132 Y113.024 E16.94759
G1 X131.617 Y114.895 E17.04287
G1 X130.689 Y116.556 E17.13779
G1 X130.052 Y117.369 E17.18932
G1 X128.815 Y118.366 E17.26858
G1 X127.037 Y119.252 E17.36769
G1 X125.638 Y119.456 E17.43823
M204 S3000
M205 X10 Y10
G1 F4800 E15.43823
G0 F7500 X126.917 Y118.865
M204 S2500
M205 X8 Y8
G1 F4800 E17.43823
G1 F2400 X125.58 Y119.06 E17.50563
G1 X94.503 Y119.1 E19.05607
G1 X92.743 Y118.738 E19.14572
G1 X91.234 Y117.901 E19.23181
G1 X90.398 Y117.249 E19.2847
G1 X89.477 Y116.105 E19.35797
G1 X88.635 Y114.416 E19.45213
G1 X88.424 Y112.856 E19.53067
G1 X88.4 Y107.016 E19.82203
G1 X88.762 Y105.246 E19.91216
G1 X89.626 Y103.691 E20.00091
G1 X90.237 Y102.912 E20.0503
G1 X91.402 Y101.973 E20.12495
G1 X93.083 Y101.135 E20.21866
G1 X94.42 Y100.94 E20.28607
G1 X125.497 Y100.9 E21.83651
G1 X127.257 Y101.262 E21.92616
G1 X128.766 Y102.099 E22.01225
G1 X129.602 Y102.751 E22.06514
G1 X130.523 Y103.895 E22.13841
G1 X131.365 Y105.584 E22.23257
G1 X131.576 Y107.144 E22.3111
G1 X131.6 Y112.984 E22.60246
G1 X131.238 Y114.754 E22.6926
G1 X130.374 Y116.309 E22.78135
G1 X129.763 Y117.088 E22.83074
G1 X128.598 Y118.027 E22.90539
G1 X126.917 Y118.865 E22.9991
M204 S3000
M205 X10 Y10
G0 F7500 X126.797 Y118.478
M204 S2500
M205 X8 Y8
G1 F2400 X125.522 Y118.664 E23.06338
G1 X94.545 Y118.7 E24.60883
G1 X92.883 Y118.358 E24.69349
G1 X91.428 Y117.551 E24.7765
G1 X90.683 Y116.965 E24.82379
G1 X89.814 Y115.885 E24.89294
G1 X89.022 Y114.296 E24.98152
G1 X88.824 Y112.854 E25.05414
G1 X88.8 Y107.056 E25.3434
G1 X89.142 Y105.385 E25.4285
G1 X89.941 Y103.938 E25.51096
G1 X90.523 Y103.195 E25.55805
G1 X91.622 Y102.31 E25.62845
G1 X93.203 Y101.522 E25.71658
G1 X94.478 Y101.336 E25.78086
G1 X125.455 Y101.3 E27.32631
G1 X127.117 Y101.642 E27.41097
G1 X128.572 Y102.449 E27.49397
G1 X129.317 Y103.035 E27.54126
G1 X130.186 Y104.115 E27.61042
G1 X130.978 Y105.704 E27.699
G1 X131.176 Y107.146 E27.77161
G1 X131.2 Y112.944 E28.06088
G1 X130.858 Y114.615 E28.14597
G1 X130.059 Y116.062 E28.22844
G1 X129.477 Y116.805 E28.27553
G1 X128.378 Y117.69 E28.34592
G1 X126.797 Y118.478 E28.43405
M204 S3000
M205 X10 Y10
G0 F7500 X126.677 Y118.091
M204 S2500
M205 X8 Y8
G1 F2400 X125.464 Y118.268 E28.49521
G1 X94.587 Y118.3 E30.03567
G1 X93.023 Y117.978 E30.11534
G1 X91.622 Y117.201 E30.19526
G1 X90.968 Y116.68 E30.23698
G1 X90.151 Y115.665 E30.30199
G1 X89.409 Y114.176 E30.38498
G1 X89.224 Y112.852 E30.45168
G1 X89.2 Y107.096 E30.73885
G1 X89.522 Y105.525 E30.81886
G1 X90.256 Y104.185 E30.89508
G1 X90.812 Y103.476 E30.94003
G1 X91.838 Y102.649 E31.00578
G1 X93.323 Y101.909 E31.08856
G1 X94.536 Y101.732 E31.14971
G1 X125.413 Y101.7 E32.69017
G1 X126.977 Y102.022 E32.76984
G1 X128.378 Y102.799 E32.84977
G1 X129.032 Y103.32 E32.89148
G1 X129.849 Y104.335 E32.95649
G1 X130.591 Y105.824 E33.03949
G1 X130.776 Y107.148 E33.10618
G1 X130.8 Y112.904 E33.39335
G1 X130.478 Y114.475 E33.47336
G1 X129.744 Y115.815 E33.54958
G1 X129.188 Y116.524 E33.59454
G1 X128.162 Y117.351 E33.66028
G1 X126.677 Y118.091 E33.74306
M204 S3000
M205 X10 Y10
G0 F7500 X126.557 Y117.704
M204 S2500
M205 X8 Y8
G1 F2400 X125.406 Y117.872 E33.80109
G1 X94.629 Y117.9 E35.33656
G1 X93.162 Y117.598 E35.41128
G1 X91.871 Y116.888 E35.48479
G1 X91.254 Y116.396 E35.52416
G1 X90.488 Y115.445 E35.58508
G1 X89.796 Y114.056 E35.66251
G1 X89.624 Y112.85 E35.72328
G1 X89.6 Y107.136 E36.00836
G1 X89.902 Y105.663 E36.08337
G1 X90.571 Y104.432 E36.15327
G1 X91.101 Y103.757 E36.19609
G1 X92.054 Y102.988 E36.25718
G1 X93.443 Y102.296 E36.3346
G1 X94.594 Y102.128 E36.39264
G1 X125.371 Y102.1 E37.92811
G1 X126.838 Y102.402 E38.00283
G1 X128.129 Y103.112 E38.07634
G1 X128.746 Y103.604 E38.11571
G1 X129.512 Y104.555 E38.17663
G1 X130.204 Y105.944 E38.25405
G1 X130.376 Y107.15 E38.31483
G1 X130.4 Y112.864 E38.5999
G1 X130.098 Y114.337 E38.67492
G1 X129.429 Y115.568 E38.74482
G1 X128.899 Y116.243 E38.78763
G1 X127.946 Y117.012 E38.84873
G1 X126.557 Y117.704 E38.92615
M204 S3000
M205 X10 Y10
G0 F7500 X126.437 Y117.317
M204 S2500
M205 X8 Y8
G1 F2400 X125.348 Y117.476 E38.98106
G1 X94.671 Y117.5 E40.51154
G1 X93.3 Y117.218 E40.58137
G1 X92.12 Y116.575 E40.64841
G1 X91.537 Y116.11 E40.68562
G1 X90.827 Y115.229 E40.74207
G1 X90.183 Y113.937 E40.81409
G1 X90.024 Y112.848 E40.869
G1 X90 Y107.176 E41.15198
G1 X90.282 Y105.801 E41.222
G1 X90.886 Y104.679 E41.28558
G1 X91.389 Y104.038 E41.32623
G1 X92.271 Y103.327 E41.38275
G1 X93.563 Y102.683 E41.45477
G1 X94.652 Y102.524 E41.50967
G1 X125.329 Y102.5 E43.04016
G1 X126.7 Y102.782 E43.10999
G1 X127.88 Y103.425 E43.17703
G1 X128.463 Y103.89 E43.21424
G1 X129.173 Y104.771 E43.27069
G1 X129.817 Y106.063 E43.34271
G1 X129.976 Y107.152 E43.39761
G1 X130 Y112.824 E43.68059
G1 X129.718 Y114.199 E43.75062
G1 X129.114 Y115.321 E43.81419
G1 X128.611 Y115.962 E43.85484
G1 X127.729 Y116.673 E43.91136
G1 X126.437 Y117.317 E43.98339
M204 S3000
M205 X10 Y10
G0 F7500 X126.317 Y116.93
M204 S2500
M205 X8 Y8
G1 F2400 X125.29 Y117.08 E44.03517
G1 X94.713 Y117.1 E45.56066
G1 X93.438 Y116.838 E45.6256
G1 X92.369 Y116.262 E45.68618
G1 X91.822 Y115.826 E45.72108
G1 X91.164 Y115.009 E45.77341
G1 X90.57 Y113.817 E45.83986
G1 X90.42 Y112.79 E45.89164
G1 X90.4 Y107.216 E46.16973
G1 X90.662 Y105.939 E46.23477
G1 X91.238 Y104.869 E46.29539
G1 X91.674 Y104.322 E46.33029
G1 X92.491 Y103.664 E46.38263
G1 X93.683 Y103.07 E46.44907
G1 X94.71 Y102.92 E46.50085
G1 X125.287 Y102.9 E48.02634
G1 X126.562 Y103.162 E48.09128
G1 X127.631 Y103.738 E48.15187
G1 X128.178 Y104.174 E48.18676
G1 X128.836 Y104.991 E48.2391
G1 X129.43 Y106.183 E48.30554
G1 X129.58 Y107.21 E48.35732
G1 X129.6 Y112.784 E48.63541
G1 X129.338 Y114.061 E48.70045
G1 X128.762 Y115.131 E48.76108
G1 X128.326 Y115.678 E48.79598
G1 X127.509 Y116.336 E48.84831
G1 X126.317 Y116.93 E48.91476
M204 S3000
M205 X10 Y10
G0 F7500 X126.197 Y116.543
M204 S2500
M205 X8 Y8
G1 F2400 X125.232 Y116.684 E48.96341
G1 X94.754 Y116.7 E50.48396
G1 X93.576 Y116.458 E50.54396
G1 X92.559 Y115.91 E50.6016
G1 X92.109 Y115.544 E50.63054
G1 X91.501 Y114.789 E50.6789
G1 X90.957 Y113.697 E50.73976
G1 X90.816 Y112.732 E50.78842
G1 X90.8 Y107.256 E51.06162
G1 X91.042 Y106.077 E51.12167
G1 X91.59 Y105.059 E51.17935
G1 X91.956 Y104.609 E51.20828
G1 X92.711 Y104.001 E51.25665
G1 X93.803 Y103.457 E51.31751
G1 X94.768 Y103.316 E51.36617
G1 X125.246 Y103.3 E52.88672
G1 X126.424 Y103.542 E52.94672
G1 X127.441 Y104.09 E53.00436
G1 X127.891 Y104.456 E53.03329
G1 X128.499 Y105.211 E53.08166
G1 X129.043 Y106.303 E53.14252
G1 X129.184 Y107.268 E53.19118
G1 X129.2 Y112.744 E53.46438
G1 X128.958 Y113.923 E53.52442
G1 X128.41 Y114.941 E53.5821
G1 X128.044 Y115.391 E53.61104
G1 X127.289 Y115.999 E53.65941
G1 X126.197 Y116.543 E53.72027
M204 S3000
M205 X10 Y10
G0 F7500 X126.077 Y116.156
M204 S2500
M205 X8 Y8
G1 F2400 X125.174 Y116.288 E53.7658
G1 X94.795 Y116.3 E55.28142
G1 X93.714 Y116.078 E55.33647
G1 X92.806 Y115.595 E55.38778
G1 X92.421 Y115.293 E55.4122
G1 X91.838 Y114.569 E55.45857
G1 X91.344 Y113.577 E55.51386
G1 X91.212 Y112.674 E55.55939
G1 X91.2 Y107.296 E55.8277
G1 X91.422 Y106.214 E55.8828
G1 X91.905 Y105.306 E55.93411
G1 X92.207 Y104.921 E55.95853
G1 X92.931 Y104.338 E56.0049
G1 X93.923 Y103.844 E56.06019
G1 X94.826 Y103.712 E56.10572
G1 X125.205 Y103.7 E57.62133
G1 X126.286 Y103.922 E57.67639
G1 X127.194 Y104.405 E57.7277
G1 X127.579 Y104.707 E57.75211
G1 X128.162 Y105.431 E57.79849
G1 X128.656 Y106.423 E57.85378
G1 X128.788 Y107.326 E57.89931
G1 X128.8 Y112.704 E58.16762
G1 X128.578 Y113.786 E58.22272
G1 X128.095 Y114.694 E58.27403
G1 X127.793 Y115.079 E58.29845
G1 X127.069 Y115.662 E58.34482
G1 X126.077 Y116.156 E58.40011
M204 S3000
M205 X10 Y10
G0 F7500 X125.957 Y115.769
M204 S2500
M205 X8 Y8
G1 F2400 X125.116 Y115.892 E58.44251
G1 X94.836 Y115.9 E59.95319
G1 X93.85 Y115.698 E60.0034
G1 X93.045 Y115.274 E60.04879
G1 X92.733 Y115.042 E60.06819
G1 X92.175 Y114.349 E60.11258
G1 X91.731 Y113.457 E60.16229
G1 X91.608 Y112.616 E60.20469
G1 X91.6 Y107.336 E60.46812
G1 X91.802 Y106.35 E60.51833
G1 X92.226 Y105.545 E60.56372
G1 X92.458 Y105.233 E60.58312
G1 X93.151 Y104.675 E60.62751
G1 X94.043 Y104.231 E60.67722
G1 X94.884 Y104.108 E60.71962
G1 X125.164 Y104.1 E62.2303
G1 X126.15 Y104.302 E62.28051
G1 X126.955 Y104.726 E62.3259
G1 X127.267 Y104.958 E62.3453
G1 X127.825 Y105.651 E62.38969
G1 X128.269 Y106.543 E62.4394
G1 X128.392 Y107.384 E62.4818
G1 X128.4 Y112.664 E62.74522
G1 X128.198 Y113.65 E62.79544
G1 X127.774 Y114.455 E62.84083
G1 X127.542 Y114.767 E62.86023
G1 X126.849 Y115.325 E62.90461
G1 X125.957 Y115.769 E62.95432
M204 S3000
M205 X10 Y10
G0 F7500 X125.837 Y115.382
M204 S2500
M205 X8 Y8
G1 F2400 X125.058 Y115.496 E62.9936
G1 X94.877 Y115.5 E64.49934
G1 X93.987 Y115.318 E64.54466
G1 X93.232 Y114.92 E64.58724
G1 X93.012 Y114.751 E64.60108
G1 X92.514 Y114.133 E64.64068
G1 X92.118 Y113.337 E64.68503
G1 X92.004 Y112.558 E64.72431
G1 X92 Y107.377 E64.98279
G1 X92.182 Y106.487 E65.02811
G1 X92.58 Y105.732 E65.07069
G1 X92.749 Y105.512 E65.08454
G1 X93.367 Y105.014 E65.12413
G1 X94.163 Y104.618 E65.16849
G1 X94.942 Y104.504 E65.20777
G1 X125.123 Y104.5 E66.7135
G1 X126.013 Y104.682 E66.75882
G1 X126.768 Y105.08 E66.8014
G1 X126.988 Y105.249 E66.81524
G1 X127.486 Y105.867 E66.85484
G1 X127.882 Y106.663 E66.8992
G1 X127.996 Y107.442 E66.93848
G1 X128 Y112.623 E67.19696
G1 X127.818 Y113.513 E67.24228
G1 X127.42 Y114.268 E67.28486
G1 X127.251 Y114.488 E67.2987
G1 X126.633 Y114.986 E67.3383
G1 X125.837 Y115.382 E67.38265
M204 S3000
M205 X10 Y10
G0 F7500 X125.717 Y114.995
M204 S2500
M205 X8 Y8
G1 F2400 X125 Y115.1 E67.4188
G1 X94.918 Y115.1 E68.9196
G1 X94.122 Y114.937 E68.96014
G1 X93.418 Y114.566 E68.99984
G1 X93.293 Y114.463 E69.00792
G1 X92.853 Y113.917 E69.0429
G1 X92.505 Y113.217 E69.0819
G1 X92.4 Y112.5 E69.11806
G1 X92.4 Y107.418 E69.3716
G1 X92.563 Y106.622 E69.41214
G1 X92.934 Y105.918 E69.45184
G1 X93.037 Y105.793 E69.45992
G1 X93.583 Y105.353 E69.4949
G1 X94.283 Y105.005 E69.5339
G1 X95 Y104.9 E69.57006
G1 X125.082 Y104.9 E71.07085
G1 X125.878 Y105.063 E71.11139
G1 X126.582 Y105.434 E71.15109
G1 X126.707 Y105.537 E71.15917
G1 X127.147 Y106.083 E71.19416
G1 X127.495 Y106.783 E71.23316
G1 X127.6 Y107.5 E71.26931
G1 X127.6 Y112.582 E71.52285
G1 X127.437 Y113.378 E71.56339
G1 X127.066 Y114.082 E71.60309
G1 X126.963 Y114.207 E71.61117
G1 X126.417 Y114.647 E71.64615
G1 X125.717 Y114.995 E71.68515
M204 S3000
M205 X10 Y10
G0 F7500 X125.595 Y114.609
M204 S2500
M205 X8 Y8
G1 F2400 X125 Y114.7 E71.71518
G1 X94.959 Y114.7 E73.21394
G1 X94.257 Y114.556 E73.24969
G1 X93.604 Y114.212 E73.28651
G1 X93.192 Y113.701 E73.31926
G1 X92.891 Y113.095 E73.35302
G1 X92.8 Y112.5 E73.38305
G1 X92.8 Y107.459 E73.63454
G1 X92.944 Y106.757 E73.67029
G1 X93.288 Y106.104 E73.70712
G1 X93.799 Y105.692 E73.73987
G1 X94.405 Y105.391 E73.77362
G1 X95 Y105.3 E73.80365
G1 X125.041 Y105.3 E75.3024
G1 X125.743 Y105.444 E75.33816
G1 X126.396 Y105.788 E75.37498
G1 X126.808 Y106.299 E75.40773
G1 X127.109 Y106.905 E75.44148
G1 X127.2 Y107.5 E75.47151
G1 X127.2 Y112.541 E75.72301
G1 X127.056 Y113.243 E75.75876
G1 X126.712 Y113.896 E75.79559
G1 X126.201 Y114.308 E75.82833
G1 X125.595 Y114.609 E75.86209
M204 S3000
M205 X10 Y10
G0 F7500 X125.474 Y114.223
M204 S2500
M205 X8 Y8
G1 F2400 X125 Y114.3 E75.88605
G1 X95 Y114.3 E77.38275
G1 X94.394 Y114.176 E77.41361
G1 X93.862 Y113.895 E77.44363
G1 X93.55 Y113.523 E77.46785
G1 X93.277 Y112.974 E77.49844
G1 X93.2 Y112.5 E77.5224
G1 X93.2 Y107.5 E77.77185
G1 X93.324 Y106.894 E77.80271
G1 X93.605 Y106.362 E77.83273
G1 X93.977 Y106.05 E77.85695
G1 X94.526 Y105.777 E77.88754
G1 X95 Y105.7 E77.9115
G1 X125 Y105.7 E79.4082
G1 X125.606 Y105.824 E79.43906
G1 X126.138 Y106.105 E79.46908
G1 X126.45 Y106.477 E79.4933
G1 X126.723 Y107.026 E79.52389
G1 X126.8 Y107.5 E79.54785
G1 X126.8 Y112.5 E79.7973
G1 X126.676 Y113.106 E79.82816
G1 X126.395 Y113.638 E79.85818
G1 X126.023 Y113.95 E79.8824
G1 X125.474 Y114.223 E79.91299
M204 S3000
M205 X10 Y10
G0 F7500 X125.351 Y113.838
M204 S2500
M205 X8 Y8
G1 F2400 X125 Y113.9 E79.93077
G1 X95 Y113.9 E81.42748
G1 X94.581 Y113.822 E81.44874
G1 X94.117 Y113.577 E81.47492
G1 X93.908 Y113.345 E81.4905
G1 X93.662 Y112.851 E81.51803
G1 X93.6 Y112.5 E81.53581
G1 X93.6 Y107.5 E81.78526
G1 X93.678 Y107.081 E81.80653
G1 X93.923 Y106.617 E81.83271
G1 X94.155 Y106.408 E81.84828
G1 X94.649 Y106.162 E81.87582
G1 X95 Y106.1 E81.8936
G1 X125 Y106.1 E83.39031
G1 X125.419 Y106.178 E83.41157
G1 X125.883 Y106.423 E83.43775
G1 X126.092 Y106.655 E83.45332
G1 X126.338 Y107.149 E83.48086
G1 X126.4 Y107.5 E83.49864
G1 X126.4 Y112.5 E83.74809
G1 X126.322 Y112.919 E83.76935
G1 X126.077 Y113.383 E83.79553
G1 X125.845 Y113.592 E83.81111
G1 X125.351 Y113.838 E83.83864
